icon-themes/sifr_svg/cmd/sc_patternfield.svg

<svg viewBox="0 0 16 16" xmlns="http://www.w3.org/2000/svg"><path d="m0 2v11h16v-11zm1 1h14v9h-14zm8 1v7h3c1.1.01344 2-1.119288 2-2.5 0-1.4-.89543-2.5-2-2.5h-2v-2zm-6 2v1h3v1h-2.5c-.828427 0-1.5.671573-1.5 1.5s.671573 1.5 1.5 1.5h3 .5v-4c0-.552285-.447715-1-1-1zm7 1h2c.552244 0 1 .671573 1 1.5s-.447715 1.5-1 1.5h-2zm-6.5 2h2.5v1h-2.5c-.276142 0-.5-.223858-.5-.5s.223858-.5.5-.5z" fill="#555753"/></svg>

<svg xmlns="http://www.w3.org/2000/svg" viewBox="0 0 16 16">
  <path
     style="fill:#555753"
     d="M 0 2 L 0 13 L 16 13 L 16 2 L 0 2 z M 1 3 L 15 3 L 15 12 L 1 12 L 1 3 z M 9 4 L 9 11 L 12 11 C 13.1 11.01344 14 9.880712 14 8.5 C 14 7.1 13.10457 6 12 6 L 10 6 L 10 4 L 9 4 z M 3 6 L 3 7 L 6 7 L 6 8 L 3.5 8 C 2.671573 8 2 8.671573 2 9.5 C 2 10.328427 2.671573 11 3.5 11 L 6.5 11 L 7 11 L 7 7 C 7 6.447715 6.552285 6 6 6 L 3 6 z M 10 7 L 12 7 C 12.552244 7 13 7.671573 13 8.5 C 13 9.328427 12.552285 10 12 10 L 10 10 L 10 7 z M 3.5 9 L 6 9 L 6 10 L 3.5 10 C 3.223858 10 3 9.776142 3 9.5 C 3 9.223858 3.223858 9 3.5 9 z "
     />
</svg>
